X:1
T:Partition sans titre
C:Compositeur / Arrangeur
L:1/8
M:4/4
I:linebreak $
K:Bb
V:1 treble nm="Violon" snm="Vln."
V:1
 DE^FG ABAG | ^F2 FD G4 | A2 B2 cBAG | ^F2 FD G4 | DE^FG ABAG | ^F2 FD G4 | ^F2 F2 EDEC |1 D8 :|2 %8
 D6 ^F2 |: Bc d2 d2 d2 | cdcA F4 | FGAB cdec | d3 e dcBA | GA B2 B2 B2 | ABA^F D4 | DE^FG ABAF |1 %16
 G4 F4 :|2 G8 |: D2 ^F2 D2 F2 | G2 G2 cBAG | ^F2 F2 GFGB | A4 d4 | D2 ^F2 D2 F2 | G2 G2 cBAG | %24
 ^F2 F2 EDEC | D8 :| %26
